static/images/icons/user_stories.svg

<svg fill="none" height="81" viewBox="0 0 89 81" width="89" xmlns="http://www.w3.org/2000/svg"><g fill="currentColor"><path d="m28.6617 53.2704h-18.4737c-.78489 0-1.42189-.6384-1.42189-1.425s.637-1.425 1.42189-1.425h18.4737c.7849 0 1.4219.6384 1.4219 1.425s-.6363 1.425-1.4219 1.425z"/><path d="m28.6617 46.0612h-18.4737c-.78489 0-1.42189-.6384-1.42189-1.425s.637-1.425 1.42189-1.425h18.4737c.7849 0 1.4219.6384 1.4219 1.425s-.6363 1.425-1.4219 1.425z"/><path d="m33.6624 60.1757h-7.0362c-.7849 0-1.4219-.6384-1.4219-1.425s.637-1.425 1.4219-1.425h7.0362c.7848 0 1.4218.6384 1.4218 1.425s-.637 1.425-1.4218 1.425z"/><path d="m23.6688 39.1063h-13.4808c-.78489 0-1.42189-.6384-1.42189-1.425s.637-1.425 1.42189-1.425h13.4808c.7849 0 1.4219.6384 1.4219 1.425s-.6363 1.425-1.4219 1.425z"/><path d="m17.6648 32.0932h-7.2295c-.78487 0-1.42187-.6384-1.42187-1.425v-7.1399c0-.7866.637-1.425 1.42187-1.425h7.2295c.7849 0 1.4219.6384 1.4219 1.425v7.1399c0 .7873-.6363 1.425-1.4219 1.425zm-5.8076-2.85h4.3858v-4.2899h-4.3858z"/><path d="m32.4694 43.4399c-.3256 0-.6434-.1118-.8994-.3213-.3192-.2615-.5097-.6491-.5218-1.0624l-.1301-4.5236c-.01-.3392.1009-.6698.3128-.9341l11.2257-13.9928c.4877-.6071 1.3714-.7104 1.9842-.2294l4.7711 3.7392c.3008.2358.4941.5821.5368.9618.0427.3798-.0683.761-.3085 1.0581l-11.3082 13.9821c-.2169.2672-.5226.4475-.861.5066l-4.5585.7944c-.081.0143-.1628.0214-.2431.0214zm4.5578-2.2194h.0071zm-3.2518-3.2455.0675 2.3541 2.415-.421 10.0619-12.4403-2.5266-1.98z"/><path d="m63.7275 75.6472h-8.1538c-.7848 0-1.4218-.6384-1.4218-1.425v-65.91341c0-.7866.637-1.425 1.4218-1.425h8.1538c.7849 0 1.4219.6384 1.4219 1.425s-.637 1.425-1.4219 1.425h-6.7319v63.06341h6.7319c.7849 0 1.4219.6384 1.4219 1.425s-.6363 1.425-1.4219 1.425z"/><path d="m63.7273 42.025h-15.0903c-.7849 0-1.4219-.6384-1.4219-1.425s.637-1.425 1.4219-1.425h15.0903c.7849 0 1.4219.6384 1.4219 1.425s-.6363 1.425-1.4219 1.425z"/><path d="m87.1562 14.6992h-16.0957c-.7848 0-1.4218-.6384-1.4218-1.425v-11.14925c0-.7866.637-1.424999 1.4218-1.424999h16.0957c.7848 0 1.4218.638399 1.4218 1.424999v11.14925c0 .7866-.637 1.425-1.4218 1.425zm-14.6738-2.85h13.2519v-8.29925h-13.2519z"/><path d="m87.1562 48.2892h-16.0957c-.7848 0-1.4218-.6384-1.4218-1.425v-11.1492c0-.7866.637-1.425 1.4218-1.425h16.0957c.7848 0 1.4218.6384 1.4218 1.425v11.1492c0 .7866-.637 1.425-1.4218 1.425zm-14.6738-2.85h13.2519v-8.2992h-13.2519z"/><path d="m87.1562 80.4999h-16.0957c-.7848 0-1.4218-.6384-1.4218-1.425v-11.1492c0-.7866.637-1.425 1.4218-1.425h16.0957c.7848 0 1.4218.6384 1.4218 1.425v11.1492c0 .7866-.637 1.425-1.4218 1.425zm-14.6738-2.85h13.2519v-8.2992h-13.2519z"/><path d="m39.8626 67.385h-38.01885c-.78488 0-1.421875-.6384-1.421875-1.425v-49.29c0-.379.150719-.7424.418031-1.0096.267314-.2672.613544-.4467 1.008824-.4154 5.12586.02 12.05967.0399 18.99337.0599 6.9345.0199 13.869.0399 18.9963.0598.782.0029 1.4147.6384 1.4162 1.4222.0028 1.2996.0064 5.6914.0099 11.3501 0 .3256-.1102.6405-.3135.8942l-7.1755 8.944.0675 2.3541 2.4151-.4211 2.4854-3.073c.379-.4696 1.0117-.6477 1.579-.4461.5674.2017.947.7389.9477 1.3424l.0142 28.2278c0 .3784-.1493.741-.4159 1.0082s-.6284.4175-1.0059.4175zm-36.59698-2.85h35.17438l-.0114-22.7843-.2965.3669c-.2168.2672-.5225.4475-.8609.5066l-4.5585.7945c-.4067.0712-.8233-.0385-1.1432-.3-.3192-.2615-.5098-.6491-.5219-1.0623l-.1301-4.5237c-.0099-.3391.101-.6697.3128-.9341l7.1898-8.9618c-.0029-4.0933-.005-7.4755-.0079-9.4264-4.9495-.0185-11.2641-.0363-17.5793-.0548-6.3089-.0186-12.61915-.0371-17.56728-.0556zm33.76168-23.3144h.0071z"/></g></svg>

<svg width="89" height="81" viewBox="0 0 89 81" fill="none" xmlns="http://www.w3.org/2000/svg">
<path d="M28.6617 53.2704H10.188C9.40311 53.2704 8.76611 52.632 8.76611 51.8454C8.76611 51.0588 9.40311 50.4204 10.188 50.4204H28.6617C29.4466 50.4204 30.0836 51.0588 30.0836 51.8454C30.0836 52.632 29.4473 53.2704 28.6617 53.2704Z" fill="currentColor"/>
<path d="M28.6617 46.0612H10.188C9.40311 46.0612 8.76611 45.4228 8.76611 44.6362C8.76611 43.8496 9.40311 43.2112 10.188 43.2112H28.6617C29.4466 43.2112 30.0836 43.8496 30.0836 44.6362C30.0836 45.4228 29.4473 46.0612 28.6617 46.0612Z" fill="currentColor"/>
<path d="M33.6624 60.1757H26.6262C25.8413 60.1757 25.2043 59.5373 25.2043 58.7507C25.2043 57.9641 25.8413 57.3257 26.6262 57.3257H33.6624C34.4472 57.3257 35.0842 57.9641 35.0842 58.7507C35.0842 59.5373 34.4472 60.1757 33.6624 60.1757Z" fill="currentColor"/>
<path d="M23.6688 39.1063H10.188C9.40311 39.1063 8.76611 38.4679 8.76611 37.6813C8.76611 36.8947 9.40311 36.2563 10.188 36.2563H23.6688C24.4537 36.2563 25.0907 36.8947 25.0907 37.6813C25.0907 38.4679 24.4544 39.1063 23.6688 39.1063Z" fill="currentColor"/>
<path d="M17.6648 32.0932H10.4353C9.65043 32.0932 9.01343 31.4548 9.01343 30.6682V23.5283C9.01343 22.7417 9.65043 22.1033 10.4353 22.1033H17.6648C18.4497 22.1033 19.0867 22.7417 19.0867 23.5283V30.6682C19.0867 31.4555 18.4504 32.0932 17.6648 32.0932ZM11.8572 29.2432H16.243V24.9533H11.8572V29.2432Z" fill="currentColor"/>
<path d="M32.4694 43.4399C32.1438 43.4399 31.826 43.3281 31.57 43.1186C31.2508 42.8571 31.0603 42.4695 31.0482 42.0562L30.9181 37.5326C30.9081 37.1934 31.019 36.8628 31.2309 36.5985L42.4566 22.6057C42.9443 21.9986 43.828 21.8953 44.4408 22.3763L49.2119 26.1155C49.5127 26.3513 49.706 26.6976 49.7487 27.0773C49.7914 27.4571 49.6804 27.8383 49.4402 28.1354L38.132 42.1175C37.9151 42.3847 37.6094 42.565 37.271 42.6241L32.7125 43.4185C32.6315 43.4328 32.5497 43.4399 32.4694 43.4399ZM37.0272 41.2205H37.0343H37.0272ZM33.7754 37.975L33.8429 40.3291L36.2579 39.9081L46.3198 27.4678L43.7932 25.4878L33.7754 37.975Z" fill="currentColor"/>
<path d="M63.7275 75.6472H55.5737C54.7889 75.6472 54.1519 75.0088 54.1519 74.2222V8.30879C54.1519 7.52219 54.7889 6.88379 55.5737 6.88379H63.7275C64.5124 6.88379 65.1494 7.52219 65.1494 8.30879C65.1494 9.09539 64.5124 9.73379 63.7275 9.73379H56.9956V72.7972H63.7275C64.5124 72.7972 65.1494 73.4356 65.1494 74.2222C65.1494 75.0088 64.5131 75.6472 63.7275 75.6472Z" fill="currentColor"/>
<path d="M63.7273 42.025H48.637C47.8521 42.025 47.2151 41.3866 47.2151 40.6C47.2151 39.8134 47.8521 39.175 48.637 39.175H63.7273C64.5122 39.175 65.1492 39.8134 65.1492 40.6C65.1492 41.3866 64.5129 42.025 63.7273 42.025Z" fill="currentColor"/>
<path d="M87.1562 14.6992H71.0605C70.2757 14.6992 69.6387 14.0608 69.6387 13.2742V2.12495C69.6387 1.33835 70.2757 0.699951 71.0605 0.699951H87.1562C87.941 0.699951 88.578 1.33835 88.578 2.12495V13.2742C88.578 14.0608 87.941 14.6992 87.1562 14.6992ZM72.4824 11.8492H85.7343V3.54995H72.4824V11.8492Z" fill="currentColor"/>
<path d="M87.1562 48.2892H71.0605C70.2757 48.2892 69.6387 47.6508 69.6387 46.8642V35.715C69.6387 34.9284 70.2757 34.29 71.0605 34.29H87.1562C87.941 34.29 88.578 34.9284 88.578 35.715V46.8642C88.578 47.6508 87.941 48.2892 87.1562 48.2892ZM72.4824 45.4392H85.7343V37.14H72.4824V45.4392Z" fill="currentColor"/>
<path d="M87.1562 80.4999H71.0605C70.2757 80.4999 69.6387 79.8615 69.6387 79.0749V67.9257C69.6387 67.1391 70.2757 66.5007 71.0605 66.5007H87.1562C87.941 66.5007 88.578 67.1391 88.578 67.9257V79.0749C88.578 79.8615 87.941 80.4999 87.1562 80.4999ZM72.4824 77.6499H85.7343V69.3507H72.4824V77.6499Z" fill="currentColor"/>
<path d="M39.8626 67.385H1.84375C1.05887 67.385 0.421875 66.7466 0.421875 65.96V16.67C0.421875 16.291 0.572594 15.9276 0.839906 15.6604C1.10722 15.3932 1.45345 15.2137 1.84873 15.245C6.97459 15.265 13.9084 15.2849 20.8421 15.3049C27.7766 15.3248 34.7111 15.3448 39.8384 15.3647C40.6204 15.3676 41.2531 16.0031 41.2546 16.7869C41.2574 18.0865 41.261 22.4783 41.2645 28.137C41.2645 28.4626 41.1543 28.7775 40.951 29.0312L33.7755 37.9752L33.843 40.3293L36.2581 39.9082L38.7435 36.8352C39.1225 36.3656 39.7552 36.1875 40.3225 36.3891C40.8899 36.5908 41.2695 37.128 41.2702 37.7315L41.2844 65.9593C41.2844 66.3377 41.1351 66.7003 40.8685 66.9675C40.6019 67.2347 40.2401 67.385 39.8626 67.385ZM3.26562 64.535H38.44L38.4286 41.7507L38.1321 42.1176C37.9153 42.3848 37.6096 42.5651 37.2712 42.6242L32.7127 43.4187C32.306 43.4899 31.8894 43.3802 31.5695 43.1187C31.2503 42.8572 31.0597 42.4696 31.0476 42.0564L30.9175 37.5327C30.9076 37.1936 31.0185 36.863 31.2303 36.5986L38.4201 27.6368C38.4172 23.5435 38.4151 20.1613 38.4122 18.2104C33.4627 18.1919 27.1481 18.1741 20.8329 18.1556C14.524 18.137 8.21375 18.1185 3.26562 18.1V64.535ZM37.0273 41.2206H37.0344H37.0273Z" fill="currentColor"/>
</svg>
